X:919
T:Yester House
R:Reel
B:The Athole Collection
M:C|
L:1/8
K:A
a|e>Ae>c d<=G B>=g|e>Ae>d e>f=g>b|a<f=g<e d>=G B>d|e>dg>B A2A:|
|:B|A<a a>f =g<=GB<d|a<a a>=g a>Aa>f|=g>be>g d<=GB<d|e>d=g>B A2A:|

